images/4331799.svg

<?xml version="1.0" encoding="UTF-8"?>
<svg xmlns="http://www.w3.org/2000/svg" xmlns:xlink="http://www.w3.org/1999/xlink" width="300pt" height="300pt" viewBox="0 0 300 300" version="1.1">
<defs>
<g>
<symbol overflow="visible" id="glyph0-0">
<path style="stroke:none;" d="M 0.453125 1.59375 L 0.453125 -6.34375 L 4.953125 -6.34375 L 4.953125 1.59375 Z M 0.953125 1.09375 L 4.453125 1.09375 L 4.453125 -5.84375 L 0.953125 -5.84375 Z M 0.953125 1.09375 "/>
</symbol>
<symbol overflow="visible" id="glyph0-1">
<path style="stroke:none;" d="M 0.890625 -6.5625 L 2.078125 -6.5625 L 4.984375 -1.078125 L 4.984375 -6.5625 L 5.84375 -6.5625 L 5.84375 0 L 4.65625 0 L 1.75 -5.484375 L 1.75 0 L 0.890625 0 Z M 0.890625 -6.5625 "/>
</symbol>
<symbol overflow="visible" id="glyph0-2">
<path style="stroke:none;" d="M 0.890625 -6.5625 L 1.765625 -6.5625 L 1.765625 -3.875 L 5 -3.875 L 5 -6.5625 L 5.890625 -6.5625 L 5.890625 0 L 5 0 L 5 -3.125 L 1.765625 -3.125 L 1.765625 0 L 0.890625 0 Z M 0.890625 -6.5625 "/>
</symbol>
<symbol overflow="visible" id="glyph0-3">
<path style="stroke:none;" d="M 3.546875 -5.953125 C 2.898438 -5.953125 2.382812 -5.710938 2 -5.234375 C 1.625 -4.753906 1.4375 -4.101562 1.4375 -3.28125 C 1.4375 -2.445312 1.625 -1.789062 2 -1.3125 C 2.382812 -0.832031 2.898438 -0.59375 3.546875 -0.59375 C 4.191406 -0.59375 4.703125 -0.832031 5.078125 -1.3125 C 5.453125 -1.789062 5.640625 -2.445312 5.640625 -3.28125 C 5.640625 -4.101562 5.453125 -4.753906 5.078125 -5.234375 C 4.703125 -5.710938 4.191406 -5.953125 3.546875 -5.953125 Z M 3.546875 -6.6875 C 4.460938 -6.6875 5.195312 -6.375 5.75 -5.75 C 6.300781 -5.132812 6.578125 -4.3125 6.578125 -3.28125 C 6.578125 -2.238281 6.300781 -1.410156 5.75 -0.796875 C 5.195312 -0.179688 4.460938 0.125 3.546875 0.125 C 2.617188 0.125 1.878906 -0.179688 1.328125 -0.796875 C 0.773438 -1.410156 0.5 -2.238281 0.5 -3.28125 C 0.5 -4.3125 0.773438 -5.132812 1.328125 -5.75 C 1.878906 -6.375 2.617188 -6.6875 3.546875 -6.6875 Z M 3.546875 -6.6875 "/>
</symbol>
<symbol overflow="visible" id="glyph0-4">
<path style="stroke:none;" d="M 0.890625 -6.5625 L 4.65625 -6.5625 L 4.65625 -5.8125 L 1.765625 -5.8125 L 1.765625 -3.875 L 4.375 -3.875 L 4.375 -3.140625 L 1.765625 -3.140625 L 1.765625 0 L 0.890625 0 Z M 0.890625 -6.5625 "/>
</symbol>
</g>
</defs>
<g id="surface31821">
<rect x="0" y="0" width="300" height="300" style="fill:rgb(100%,100%,100%);fill-opacity:1;stroke:none;"/>
<path style="fill:none;stroke-width:1.2;stroke-linecap:butt;stroke-linejoin:miter;stroke:rgb(0%,0%,0%);stroke-opacity:1;stroke-miterlimit:10;" d="M 103.4375 207.378906 L 98.632812 185.757812 "/>
<path style="fill:none;stroke-width:1.2;stroke-linecap:butt;stroke-linejoin:miter;stroke:rgb(0%,0%,0%);stroke-opacity:1;stroke-miterlimit:10;" d="M 98.632812 185.757812 L 88.066406 182.433594 "/>
<path style="fill:none;stroke-width:1.2;stroke-linecap:butt;stroke-linejoin:miter;stroke:rgb(0%,0%,100%);stroke-opacity:1;stroke-miterlimit:10;" d="M 88.066406 182.433594 L 77.503906 179.105469 "/>
<path style="fill:none;stroke-width:1.2;stroke-linecap:butt;stroke-linejoin:miter;stroke:rgb(0%,0%,0%);stroke-opacity:1;stroke-miterlimit:10;" d="M 98.082031 180.121094 L 89.632812 177.460938 "/>
<path style="fill:none;stroke-width:1.2;stroke-linecap:butt;stroke-linejoin:miter;stroke:rgb(0%,0%,100%);stroke-opacity:1;stroke-miterlimit:10;" d="M 89.632812 177.460938 L 81.179688 174.800781 "/>
<path style="fill:none;stroke-width:1.2;stroke-linecap:butt;stroke-linejoin:miter;stroke:rgb(0%,0%,0%);stroke-opacity:1;stroke-miterlimit:10;" d="M 114.953125 170.785156 L 98.632812 185.757812 "/>
<path style="fill:none;stroke-width:1.2;stroke-linecap:butt;stroke-linejoin:miter;stroke:rgb(0%,0%,100%);stroke-opacity:1;stroke-miterlimit:10;" d="M 77.503906 179.105469 L 75.101562 168.296875 "/>
<path style="fill:none;stroke-width:1.2;stroke-linecap:butt;stroke-linejoin:miter;stroke:rgb(0%,0%,0%);stroke-opacity:1;stroke-miterlimit:10;" d="M 75.101562 168.296875 L 72.699219 157.484375 "/>
<path style=" stroke:none;fill-rule:nonzero;fill:rgb(100%,100%,100%);fill-opacity:1;" d="M 74.503906 173.605469 L 81.503906 173.605469 L 81.503906 184.605469 L 74.503906 184.605469 Z M 74.503906 173.605469 "/>
<g style="fill:rgb(0%,0%,100%);fill-opacity:1;">
  <use xlink:href="#glyph0-1" x="74.503906" y="182.268555"/>
</g>
<path style="fill:none;stroke-width:1.2;stroke-linecap:butt;stroke-linejoin:miter;stroke:rgb(0%,0%,0%);stroke-opacity:1;stroke-miterlimit:10;" d="M 72.699219 157.484375 L 51.570312 150.835938 "/>
<path style="fill:none;stroke-width:1.2;stroke-linecap:butt;stroke-linejoin:miter;stroke:rgb(0%,0%,0%);stroke-opacity:1;stroke-miterlimit:10;" d="M 72.152344 151.851562 L 55.25 146.53125 "/>
<path style="fill:none;stroke-width:1.2;stroke-linecap:butt;stroke-linejoin:miter;stroke:rgb(0%,0%,0%);stroke-opacity:1;stroke-miterlimit:10;" d="M 89.019531 142.515625 L 72.699219 157.484375 "/>
<path style="fill:none;stroke-width:1.2;stroke-linecap:butt;stroke-linejoin:miter;stroke:rgb(0%,0%,0%);stroke-opacity:1;stroke-miterlimit:10;" d="M 51.570312 150.835938 L 46.765625 129.214844 "/>
<path style="fill:none;stroke-width:1.2;stroke-linecap:butt;stroke-linejoin:miter;stroke:rgb(0%,0%,0%);stroke-opacity:1;stroke-miterlimit:10;" d="M 51.570312 150.835938 L 43.410156 158.324219 "/>
<path style="fill:none;stroke-width:1.2;stroke-linecap:butt;stroke-linejoin:miter;stroke:rgb(20%,80%,80%);stroke-opacity:1;stroke-miterlimit:10;" d="M 43.410156 158.324219 L 35.25 165.808594 "/>
<path style="fill:none;stroke-width:1.2;stroke-linecap:butt;stroke-linejoin:miter;stroke:rgb(0%,0%,0%);stroke-opacity:1;stroke-miterlimit:10;" d="M 46.765625 129.214844 L 63.089844 114.242188 "/>
<path style="fill:none;stroke-width:1.2;stroke-linecap:butt;stroke-linejoin:miter;stroke:rgb(0%,0%,0%);stroke-opacity:1;stroke-miterlimit:10;" d="M 51.921875 131.558594 L 64.980469 119.582031 "/>
<path style="fill:none;stroke-width:1.2;stroke-linecap:butt;stroke-linejoin:miter;stroke:rgb(0%,0%,0%);stroke-opacity:1;stroke-miterlimit:10;" d="M 63.089844 114.242188 L 84.214844 120.894531 "/>
<path style="fill:none;stroke-width:1.2;stroke-linecap:butt;stroke-linejoin:miter;stroke:rgb(0%,0%,0%);stroke-opacity:1;stroke-miterlimit:10;" d="M 63.089844 114.242188 L 60.6875 103.433594 "/>
<path style="fill:none;stroke-width:1.2;stroke-linecap:butt;stroke-linejoin:miter;stroke:rgb(20%,80%,80%);stroke-opacity:1;stroke-miterlimit:10;" d="M 60.6875 103.433594 L 58.285156 92.621094 "/>
<path style="fill:none;stroke-width:1.2;stroke-linecap:butt;stroke-linejoin:miter;stroke:rgb(0%,0%,0%);stroke-opacity:1;stroke-miterlimit:10;" d="M 84.214844 120.894531 L 89.019531 142.515625 "/>
<path style="fill:none;stroke-width:1.2;stroke-linecap:butt;stroke-linejoin:miter;stroke:rgb(0%,0%,0%);stroke-opacity:1;stroke-miterlimit:10;" d="M 79.609375 124.183594 L 83.453125 141.484375 "/>
<path style="fill:none;stroke-width:1.2;stroke-linecap:butt;stroke-linejoin:miter;stroke:rgb(0%,0%,0%);stroke-opacity:1;stroke-miterlimit:10;" d="M 89.019531 142.515625 L 110.148438 149.164062 "/>
<path style="fill:none;stroke-width:1.2;stroke-linecap:butt;stroke-linejoin:miter;stroke:rgb(0%,0%,0%);stroke-opacity:1;stroke-miterlimit:10;" d="M 110.148438 149.164062 L 114.953125 170.785156 "/>
<path style="fill:none;stroke-width:1.2;stroke-linecap:butt;stroke-linejoin:miter;stroke:rgb(0%,0%,0%);stroke-opacity:1;stroke-miterlimit:10;" d="M 105.542969 152.457031 L 109.386719 169.753906 "/>
<path style="fill:none;stroke-width:1.2;stroke-linecap:butt;stroke-linejoin:miter;stroke:rgb(0%,0%,0%);stroke-opacity:1;stroke-miterlimit:10;" d="M 110.148438 149.164062 L 118.308594 141.675781 "/>
<path style="fill:none;stroke-width:1.2;stroke-linecap:butt;stroke-linejoin:miter;stroke:rgb(0%,0%,100%);stroke-opacity:1;stroke-miterlimit:10;" d="M 118.308594 141.675781 L 126.46875 134.191406 "/>
<path style="fill:none;stroke-width:1.2;stroke-linecap:butt;stroke-linejoin:miter;stroke:rgb(0%,0%,100%);stroke-opacity:1;stroke-miterlimit:10;" d="M 126.46875 134.191406 L 137.035156 137.515625 "/>
<path style="fill:none;stroke-width:1.2;stroke-linecap:butt;stroke-linejoin:miter;stroke:rgb(0%,0%,0%);stroke-opacity:1;stroke-miterlimit:10;" d="M 137.035156 137.515625 L 147.597656 140.839844 "/>
<path style=" stroke:none;fill-rule:nonzero;fill:rgb(100%,100%,100%);fill-opacity:1;" d="M 119.46875 128.691406 L 133.46875 128.691406 L 133.46875 139.691406 L 119.46875 139.691406 Z M 119.46875 128.691406 "/>
<g style="fill:rgb(0%,0%,100%);fill-opacity:1;">
  <use xlink:href="#glyph0-1" x="119.46875" y="137.354492"/>
  <use xlink:href="#glyph0-2" x="126.446289" y="137.354492"/>
</g>
<path style="fill:none;stroke-width:1.2;stroke-linecap:butt;stroke-linejoin:miter;stroke:rgb(0%,0%,0%);stroke-opacity:1;stroke-miterlimit:10;" d="M 145.054688 141.40625 L 147.457031 152.21875 "/>
<path style="fill:none;stroke-width:1.2;stroke-linecap:butt;stroke-linejoin:miter;stroke:rgb(100%,0%,0%);stroke-opacity:1;stroke-miterlimit:10;" d="M 147.457031 152.21875 L 149.859375 163.027344 "/>
<path style="fill:none;stroke-width:1.2;stroke-linecap:butt;stroke-linejoin:miter;stroke:rgb(0%,0%,0%);stroke-opacity:1;stroke-miterlimit:10;" d="M 150.140625 140.277344 L 152.542969 151.085938 "/>
<path style="fill:none;stroke-width:1.2;stroke-linecap:butt;stroke-linejoin:miter;stroke:rgb(100%,0%,0%);stroke-opacity:1;stroke-miterlimit:10;" d="M 152.542969 151.085938 L 154.945312 161.898438 "/>
<path style="fill:none;stroke-width:1.2;stroke-linecap:butt;stroke-linejoin:miter;stroke:rgb(0%,0%,0%);stroke-opacity:1;stroke-miterlimit:10;" d="M 147.597656 140.839844 L 155.757812 133.355469 "/>
<path style="fill:none;stroke-width:1.2;stroke-linecap:butt;stroke-linejoin:miter;stroke:rgb(0%,0%,100%);stroke-opacity:1;stroke-miterlimit:10;" d="M 155.757812 133.355469 L 163.917969 125.867188 "/>
<path style=" stroke:none;fill-rule:nonzero;fill:rgb(100%,100%,100%);fill-opacity:1;" d="M 148.402344 156.960938 L 156.402344 156.960938 L 156.402344 167.960938 L 148.402344 167.960938 Z M 148.402344 156.960938 "/>
<g style="fill:rgb(100%,0%,0%);fill-opacity:1;">
  <use xlink:href="#glyph0-3" x="148.402344" y="165.624023"/>
</g>
<path style="fill:none;stroke-width:1.2;stroke-linecap:butt;stroke-linejoin:miter;stroke:rgb(0%,0%,100%);stroke-opacity:1;stroke-miterlimit:10;" d="M 163.917969 125.867188 L 174.484375 129.195312 "/>
<path style="fill:none;stroke-width:1.2;stroke-linecap:butt;stroke-linejoin:miter;stroke:rgb(0%,0%,0%);stroke-opacity:1;stroke-miterlimit:10;" d="M 174.484375 129.195312 L 185.046875 132.519531 "/>
<path style=" stroke:none;fill-rule:nonzero;fill:rgb(100%,100%,100%);fill-opacity:1;" d="M 156.917969 120.367188 L 170.917969 120.367188 L 170.917969 131.367188 L 156.917969 131.367188 Z M 156.917969 120.367188 "/>
<g style="fill:rgb(0%,0%,100%);fill-opacity:1;">
  <use xlink:href="#glyph0-1" x="156.917969" y="129.030273"/>
  <use xlink:href="#glyph0-2" x="163.895508" y="129.030273"/>
</g>
<path style="fill:none;stroke-width:1.2;stroke-linecap:butt;stroke-linejoin:miter;stroke:rgb(0%,0%,0%);stroke-opacity:1;stroke-miterlimit:10;" d="M 185.046875 132.519531 L 189.851562 154.140625 "/>
<path style="fill:none;stroke-width:1.2;stroke-linecap:butt;stroke-linejoin:miter;stroke:rgb(0%,0%,0%);stroke-opacity:1;stroke-miterlimit:10;" d="M 190.613281 133.550781 L 194.457031 150.847656 "/>
<path style="fill:none;stroke-width:1.2;stroke-linecap:butt;stroke-linejoin:miter;stroke:rgb(0%,0%,0%);stroke-opacity:1;stroke-miterlimit:10;" d="M 201.367188 117.546875 L 185.046875 132.519531 "/>
<path style="fill:none;stroke-width:1.2;stroke-linecap:butt;stroke-linejoin:miter;stroke:rgb(0%,0%,0%);stroke-opacity:1;stroke-miterlimit:10;" d="M 189.851562 154.140625 L 210.980469 160.789062 "/>
<path style="fill:none;stroke-width:1.2;stroke-linecap:butt;stroke-linejoin:miter;stroke:rgb(0%,0%,0%);stroke-opacity:1;stroke-miterlimit:10;" d="M 210.980469 160.789062 L 227.300781 145.816406 "/>
<path style="fill:none;stroke-width:1.2;stroke-linecap:butt;stroke-linejoin:miter;stroke:rgb(0%,0%,0%);stroke-opacity:1;stroke-miterlimit:10;" d="M 209.089844 155.453125 L 222.144531 143.472656 "/>
<path style="fill:none;stroke-width:1.2;stroke-linecap:butt;stroke-linejoin:miter;stroke:rgb(0%,0%,0%);stroke-opacity:1;stroke-miterlimit:10;" d="M 227.300781 145.816406 L 222.496094 124.195312 "/>
<path style="fill:none;stroke-width:1.2;stroke-linecap:butt;stroke-linejoin:miter;stroke:rgb(0%,0%,0%);stroke-opacity:1;stroke-miterlimit:10;" d="M 227.300781 145.816406 L 237.863281 149.140625 "/>
<path style="fill:none;stroke-width:1.2;stroke-linecap:butt;stroke-linejoin:miter;stroke:rgb(0%,0%,100%);stroke-opacity:1;stroke-miterlimit:10;" d="M 237.863281 149.140625 L 248.429688 152.464844 "/>
<path style="fill:none;stroke-width:1.2;stroke-linecap:butt;stroke-linejoin:miter;stroke:rgb(0%,0%,0%);stroke-opacity:1;stroke-miterlimit:10;" d="M 222.496094 124.195312 L 201.367188 117.546875 "/>
<path style="fill:none;stroke-width:1.2;stroke-linecap:butt;stroke-linejoin:miter;stroke:rgb(0%,0%,0%);stroke-opacity:1;stroke-miterlimit:10;" d="M 218.820312 128.503906 L 201.917969 123.183594 "/>
<path style="fill:none;stroke-width:1.2;stroke-linecap:butt;stroke-linejoin:miter;stroke:rgb(0%,0%,100%);stroke-opacity:1;stroke-miterlimit:10;" d="M 248.429688 152.464844 L 250.832031 163.277344 "/>
<path style="fill:none;stroke-width:1.2;stroke-linecap:butt;stroke-linejoin:miter;stroke:rgb(0%,0%,0%);stroke-opacity:1;stroke-miterlimit:10;" d="M 250.832031 163.277344 L 253.234375 174.085938 "/>
<path style="fill:none;stroke-width:1.2;stroke-linecap:butt;stroke-linejoin:miter;stroke:rgb(0%,0%,100%);stroke-opacity:1;stroke-miterlimit:10;" d="M 248.429688 152.464844 L 256.589844 144.980469 "/>
<path style="fill:none;stroke-width:1.2;stroke-linecap:butt;stroke-linejoin:miter;stroke:rgb(0%,0%,0%);stroke-opacity:1;stroke-miterlimit:10;" d="M 256.589844 144.980469 L 264.75 137.496094 "/>
<path style=" stroke:none;fill-rule:nonzero;fill:rgb(100%,100%,100%);fill-opacity:1;" d="M 245.429688 146.964844 L 252.429688 146.964844 L 252.429688 157.964844 L 245.429688 157.964844 Z M 245.429688 146.964844 "/>
<g style="fill:rgb(0%,0%,100%);fill-opacity:1;">
  <use xlink:href="#glyph0-1" x="245.429688" y="155.62793"/>
</g>
<path style=" stroke:none;fill-rule:nonzero;fill:rgb(100%,100%,100%);fill-opacity:1;" d="M 55.285156 87.121094 L 61.285156 87.121094 L 61.285156 98.121094 L 55.285156 98.121094 Z M 55.285156 87.121094 "/>
<g style="fill:rgb(20%,80%,80%);fill-opacity:1;">
  <use xlink:href="#glyph0-4" x="55.285156" y="95.78418"/>
</g>
<path style=" stroke:none;fill-rule:nonzero;fill:rgb(100%,100%,100%);fill-opacity:1;" d="M 29.25 160.308594 L 35.25 160.308594 L 35.25 171.308594 L 29.25 171.308594 Z M 29.25 160.308594 "/>
<g style="fill:rgb(20%,80%,80%);fill-opacity:1;">
  <use xlink:href="#glyph0-4" x="29.25" y="168.97168"/>
</g>
</g>
</svg>

<svg xmlns="http://www.w3.org/2000/svg" xmlns:xlink="http://www.w3.org/1999/xlink" width="300pt" height="300pt" viewBox="0 0 300 300"><defs><symbol overflow="visible"><path d="M.453 1.594v-7.938h4.5v7.938zm.5-.5h3.5v-6.938h-3.5zm0 0"/></symbol><symbol overflow="visible" id="a"><path d="M.89-6.563H2.08l2.906 5.485v-5.484h.86V0H4.656L1.75-5.484V0H.89zm0 0"/></symbol><symbol overflow="visible" id="b"><path d="M.89-6.563h.876v2.688H5v-2.688h.89V0H5v-3.125H1.766V0H.89zm0 0"/></symbol><symbol overflow="visible" id="c"><path d="M3.547-5.953c-.65 0-1.164.242-1.547.72-.375.48-.563 1.13-.563 1.952 0 .835.188 1.49.563 1.967.383.48.898.72 1.547.72.644 0 1.156-.24 1.53-.72.376-.476.564-1.132.564-1.968 0-.822-.187-1.474-.562-1.954-.375-.477-.887-.72-1.53-.72zm0-.734c.914 0 1.648.312 2.203.937.55.617.828 1.438.828 2.47 0 1.042-.277 1.87-.828 2.483-.555.617-1.29.922-2.203.922-.93 0-1.668-.305-2.22-.922C.774-1.41.5-2.237.5-3.28c0-1.033.273-1.853.828-2.47.55-.625 1.29-.938 2.22-.938zm0 0"/></symbol><symbol overflow="visible" id="d"><path d="M.89-6.563h3.766v.75h-2.89v1.938h2.61v.734h-2.61V0H.89zm0 0"/></symbol></defs><g><path fill="#fff" d="M0 0h300v300H0z"/><path d="M103.438 207.38l-4.805-21.622M98.633 185.758l-10.567-3.324" stroke-width="1.2" stroke="#000" stroke-miterlimit="10" fill="none"/><path d="M88.066 182.434l-10.562-3.33" stroke-width="1.2" stroke="#00f" stroke-miterlimit="10" fill="none"/><path d="M98.082 180.12l-8.45-2.66" stroke-width="1.2" stroke="#000" stroke-miterlimit="10" fill="none"/><path d="M89.633 177.46l-8.453-2.66" stroke-width="1.2" stroke="#00f" stroke-miterlimit="10" fill="none"/><path d="M114.953 170.785l-16.32 14.973" stroke-width="1.2" stroke="#000" stroke-miterlimit="10" fill="none"/><path d="M77.504 179.105l-2.402-10.808" stroke-width="1.2" stroke="#00f" stroke-miterlimit="10" fill="none"/><path d="M75.102 168.297L72.7 157.484" stroke-width="1.2" stroke="#000" stroke-miterlimit="10" fill="none"/><path d="M74.504 173.605h7v11h-7zm0 0" fill="#fff"/><use xlink:href="#a" x="74.504" y="182.269" fill="#00f"/><path d="M72.7 157.484l-21.13-6.648M72.152 151.852l-16.902-5.32M89.02 142.516L72.7 157.484M51.57 150.836l-4.804-21.62M51.57 150.836l-8.16 7.488" stroke-width="1.2" stroke="#000" stroke-miterlimit="10" fill="none"/><path d="M43.41 158.324l-8.16 7.485" stroke-width="1.2" stroke="#3cc" stroke-miterlimit="10" fill="none"/><path d="M46.766 129.215l16.324-14.973M51.922 131.56L64.98 119.58M63.09 114.242l21.125 6.653M63.09 114.242l-2.403-10.808" stroke-width="1.2" stroke="#000" stroke-miterlimit="10" fill="none"/><path d="M60.688 103.434L58.285 92.62" stroke-width="1.2" stroke="#3cc" stroke-miterlimit="10" fill="none"/><path d="M84.215 120.895l4.805 21.62M79.61 124.184l3.843 17.3M89.02 142.516l21.128 6.648M110.148 149.164l4.805 21.62M105.543 152.457l3.844 17.297M110.148 149.164l8.16-7.488" stroke-width="1.2" stroke="#000" stroke-miterlimit="10" fill="none"/><path d="M118.31 141.676l8.16-7.485M126.47 134.19l10.565 3.326" stroke-width="1.2" stroke="#00f" stroke-miterlimit="10" fill="none"/><path d="M137.035 137.516l10.563 3.324" stroke-width="1.2" stroke="#000" stroke-miterlimit="10" fill="none"/><path d="M119.47 128.69h14v11h-14zm0 0" fill="#fff"/><g fill="#00f"><use xlink:href="#a" x="119.469" y="137.354"/><use xlink:href="#b" x="126.446" y="137.354"/></g><path d="M145.055 141.406l2.402 10.813" stroke-width="1.2" stroke="#000" stroke-miterlimit="10" fill="none"/><path d="M147.457 152.22l2.402 10.807" stroke-width="1.2" stroke="#f00" stroke-miterlimit="10" fill="none"/><path d="M150.14 140.277l2.403 10.81" stroke-width="1.2" stroke="#000" stroke-miterlimit="10" fill="none"/><path d="M152.543 151.086l2.402 10.812" stroke-width="1.2" stroke="#f00" stroke-miterlimit="10" fill="none"/><path d="M147.598 140.84l8.16-7.485" stroke-width="1.2" stroke="#000" stroke-miterlimit="10" fill="none"/><path d="M155.758 133.355l8.16-7.488" stroke-width="1.2" stroke="#00f" stroke-miterlimit="10" fill="none"/><path d="M148.402 156.96h8v11h-8zm0 0" fill="#fff"/><use xlink:href="#c" x="148.402" y="165.624" fill="#f00"/><path d="M163.918 125.867l10.566 3.328" stroke-width="1.2" stroke="#00f" stroke-miterlimit="10" fill="none"/><path d="M174.484 129.195l10.563 3.325" stroke-width="1.2" stroke="#000" stroke-miterlimit="10" fill="none"/><path d="M156.918 120.367h14v11h-14zm0 0" fill="#fff"/><g fill="#00f"><use xlink:href="#a" x="156.918" y="129.03"/><use xlink:href="#b" x="163.896" y="129.03"/></g><path d="M185.047 132.52l4.805 21.62M190.613 133.55l3.844 17.298M201.367 117.547l-16.32 14.973M189.852 154.14l21.128 6.65M210.98 160.79l16.32-14.974M209.09 155.453l13.055-11.98M227.3 145.816l-4.804-21.62M227.3 145.816l10.563 3.325" stroke-width="1.2" stroke="#000" stroke-miterlimit="10" fill="none"/><path d="M237.863 149.14l10.567 3.325" stroke-width="1.2" stroke="#00f" stroke-miterlimit="10" fill="none"/><path d="M222.496 124.195l-21.13-6.648M218.82 128.504l-16.902-5.32" stroke-width="1.2" stroke="#000" stroke-miterlimit="10" fill="none"/><path d="M248.43 152.465l2.402 10.812" stroke-width="1.2" stroke="#00f" stroke-miterlimit="10" fill="none"/><path d="M250.832 163.277l2.402 10.81" stroke-width="1.2" stroke="#000" stroke-miterlimit="10" fill="none"/><path d="M248.43 152.465l8.16-7.485" stroke-width="1.2" stroke="#00f" stroke-miterlimit="10" fill="none"/><path d="M256.59 144.98l8.16-7.484" stroke-width="1.2" stroke="#000" stroke-miterlimit="10" fill="none"/><path d="M245.43 146.965h7v11h-7zm0 0" fill="#fff"/><use xlink:href="#a" x="245.43" y="155.628" fill="#00f"/><path d="M55.285 87.12h6v11h-6zm0 0" fill="#fff"/><use xlink:href="#d" x="55.285" y="95.784" fill="#3cc"/><path d="M29.25 160.31h6v11h-6zm0 0" fill="#fff"/><use xlink:href="#d" x="29.25" y="168.972" fill="#3cc"/></g></svg>
